flaticon/grooming/brush.svg

<svg xmlns="http://www.w3.org/2000/svg" width="32" height="32" viewBox="0 0 24 24">
    <path d="M 19.585938 2.878906 C 19.425781 2.121094 18.746094 1.601562 17.945312 1.601562 L 15.785156 1.601562 C 15.667969 1.601562 15.546875 1.519531 15.507812 1.398438 C 15.226562 0.558594 14.464844 0 13.585938 0 C 12.867188 0 12.1875 0.441406 11.828125 1.078125 C 11.785156 1.078125 11.785156 1.078125 11.746094 1.078125 C 11.105469 0.71875 10.308594 0.761719 9.667969 1.160156 C 9.625 1.160156 9.625 1.160156 9.585938 1.121094 C 9.148438 0.441406 8.386719 0.0390625 7.585938 0.0390625 C 6.464844 0.0390625 5.546875 0.761719 5.265625 1.800781 C 4.625 2.121094 4.265625 2.839844 4.425781 3.558594 C 4.554688 4.132812 5.007812 4.578125 5.570312 4.734375 C 4.636719 7.839844 5.398438 11.214844 7.625 13.558594 L 8.425781 14.398438 L 7.585938 14.398438 C 6.90625 14.398438 6.386719 14.921875 6.386719 15.601562 C 6.386719 16.28125 6.90625 16.800781 7.585938 16.800781 C 7.667969 16.800781 7.707031 16.839844 7.707031 16.878906 C 7.707031 16.921875 7.746094 16.960938 7.707031 17 C 7.386719 17.679688 7.1875 18.441406 7.1875 19.199219 C 7.1875 19.960938 7.347656 20.71875 7.707031 21.398438 C 7.746094 21.441406 7.707031 21.480469 7.707031 21.519531 C 7.707031 21.558594 7.667969 21.601562 7.585938 21.601562 C 6.90625 21.601562 6.386719 22.121094 6.386719 22.800781 C 6.386719 23.480469 6.90625 24 7.585938 24 L 16.386719 24 C 17.027344 24 17.585938 23.480469 17.585938 22.800781 C 17.585938 22.121094 17.066406 21.601562 16.386719 21.601562 C 16.308594 21.601562 16.265625 21.558594 16.265625 21.519531 C 16.265625 21.480469 16.226562 21.441406 16.265625 21.398438 C 16.585938 20.71875 16.785156 19.960938 16.785156 19.199219 C 16.785156 18.441406 16.625 17.679688 16.265625 17 C 16.226562 16.960938 16.265625 16.921875 16.265625 16.878906 C 16.265625 16.839844 16.308594 16.800781 16.386719 16.800781 C 17.066406 16.800781 17.585938 16.28125 17.585938 15.601562 C 17.585938 14.921875 17.066406 14.398438 16.386719 14.398438 L 15.523438 14.398438 L 16.105469 13.800781 C 18.496094 11.410156 19.339844 7.941406 18.363281 4.761719 C 18.710938 4.679688 19.023438 4.472656 19.265625 4.199219 C 19.546875 3.839844 19.667969 3.359375 19.585938 2.878906 Z M 16.386719 15.199219 C 16.625 15.199219 16.785156 15.359375 16.785156 15.601562 C 16.785156 15.839844 16.625 16 16.386719 16 C 16.066406 16 15.746094 16.160156 15.585938 16.441406 C 15.425781 16.71875 15.386719 17.078125 15.546875 17.359375 C 15.828125 17.921875 15.988281 18.558594 15.988281 19.199219 C 15.988281 19.839844 15.828125 20.480469 15.546875 21.039062 C 15.386719 21.320312 15.425781 21.679688 15.585938 21.960938 C 15.746094 22.238281 16.066406 22.398438 16.386719 22.398438 C 16.625 22.398438 16.785156 22.558594 16.785156 22.800781 C 16.785156 23.039062 16.625 23.199219 16.386719 23.199219 L 7.585938 23.199219 C 7.347656 23.199219 7.1875 23.039062 7.1875 22.800781 C 7.1875 22.558594 7.347656 22.398438 7.585938 22.398438 C 7.90625 22.398438 8.226562 22.238281 8.386719 21.960938 C 8.546875 21.679688 8.585938 21.320312 8.425781 21.039062 C 8.148438 20.480469 7.988281 19.839844 7.988281 19.199219 C 7.988281 18.558594 8.148438 17.921875 8.425781 17.359375 C 8.585938 17.078125 8.546875 16.71875 8.386719 16.441406 C 8.226562 16.160156 7.90625 16 7.585938 16 C 7.347656 16 7.1875 15.839844 7.1875 15.601562 C 7.1875 15.359375 7.347656 15.199219 7.585938 15.199219 Z M 15.585938 13.238281 L 14.425781 14.398438 L 9.546875 14.398438 L 8.226562 13 C 6.1875 10.839844 5.464844 7.761719 6.347656 4.921875 L 6.386719 4.800781 L 12.785156 4.800781 L 12.785156 6.519531 C 12.785156 7.679688 13.625 8.679688 14.746094 8.800781 C 14.757812 8.800781 14.769531 8.800781 14.785156 8.800781 C 15.234375 8.859375 15.683594 8.742188 16.082031 8.507812 C 16.226562 8.433594 16.367188 8.34375 16.507812 8.238281 C 16.945312 7.800781 17.226562 7.199219 17.226562 6.601562 L 17.226562 4.800781 L 17.585938 4.800781 C 18.546875 7.761719 17.785156 11.039062 15.585938 13.238281 Z M 18.585938 3.71875 C 18.464844 3.878906 18.226562 4 17.988281 4 L 16.347656 4 L 16.347656 6.601562 C 16.347656 7 16.148438 7.359375 15.867188 7.640625 C 15.585938 7.921875 15.1875 8.039062 14.785156 8 C 14.496094 7.964844 14.226562 7.828125 14.015625 7.625 C 13.753906 7.351562 13.585938 6.976562 13.585938 6.558594 L 13.585938 4.039062 L 13.546875 4.039062 L 13.546875 4 L 5.785156 4 L 5.785156 4.003906 C 5.488281 3.917969 5.25 3.683594 5.1875 3.398438 C 5.105469 2.921875 5.386719 2.558594 5.746094 2.441406 L 5.945312 2.359375 L 6.027344 2.121094 C 6.148438 1.359375 6.828125 0.800781 7.585938 0.800781 C 8.105469 0.800781 8.585938 1.078125 8.828125 1.519531 C 8.988281 1.71875 9.1875 1.878906 9.425781 1.921875 C 9.667969 1.960938 9.867188 1.921875 10.066406 1.800781 C 10.425781 1.558594 10.90625 1.558594 11.308594 1.761719 C 11.507812 1.878906 11.746094 1.921875 11.988281 1.839844 C 12.226562 1.761719 12.386719 1.640625 12.507812 1.441406 C 12.707031 1.039062 13.105469 0.800781 13.546875 0.800781 C 14.066406 0.800781 14.546875 1.160156 14.707031 1.640625 C 14.867188 2.078125 15.265625 2.398438 15.746094 2.398438 L 17.90625 2.398438 C 18.308594 2.398438 18.667969 2.679688 18.746094 3.039062 C 18.785156 3.28125 18.746094 3.519531 18.585938 3.71875 Z M 18.585938 3.71875"/>
    <path d="M10.105469 11.921875C8.625 10.359375 8.027344 8.160156 8.425781 6.078125 8.464844 5.839844 8.308594 5.640625 8.105469 5.601562 7.867188 5.558594 7.667969 5.71875 7.625 5.921875 7.1875 8.238281 7.867188 10.679688 9.507812 12.441406L10.507812 13.480469C10.585938 13.558594 10.667969 13.601562 10.785156 13.601562 10.867188 13.601562 10.945312 13.558594 11.066406 13.519531 11.226562 13.359375 11.226562 13.121094 11.066406 12.960938zM9.585938 17.199219L14.386719 17.199219C14.585938 17.199219 14.785156 17.039062 14.785156 16.800781 14.785156 16.558594 14.625 16.398438 14.386719 16.398438L9.585938 16.398438C9.347656 16.398438 9.1875 16.558594 9.1875 16.800781 9.1875 17.039062 9.347656 17.199219 9.585938 17.199219zM14.386719 18L9.585938 18C9.347656 18 9.1875 18.160156 9.1875 18.398438 9.1875 18.640625 9.347656 18.800781 9.585938 18.800781L14.386719 18.800781C14.585938 18.800781 14.785156 18.640625 14.785156 18.398438 14.785156 18.160156 14.625 18 14.386719 18zM14.386719 19.601562L9.585938 19.601562C9.347656 19.601562 9.1875 19.761719 9.1875 20 9.1875 20.238281 9.347656 20.398438 9.585938 20.398438L14.386719 20.398438C14.585938 20.398438 14.785156 20.238281 14.785156 20 14.785156 19.761719 14.625 19.601562 14.386719 19.601562zM14.386719 21.199219L9.585938 21.199219C9.347656 21.199219 9.1875 21.359375 9.1875 21.601562 9.1875 21.839844 9.347656 22 9.585938 22L14.386719 22C14.585938 22 14.785156 21.839844 14.785156 21.601562 14.785156 21.359375 14.625 21.199219 14.386719 21.199219zM14.386719 21.199219"/>
</svg>

<svg xmlns="http://www.w3.org/2000/svg" width="32" height="32" viewBox="0 0 24 24">
    <path d="M19.586 2.879c-.16-.758-.84-1.277-1.64-1.277h-2.16a.3.3 0 0 1-.278-.204A2.02 2.02 0 0 0 13.586 0c-.719 0-1.399.441-1.758 1.078h-.082c-.64-.36-1.437-.316-2.078.082-.043 0-.043 0-.082-.039a2.381 2.381 0 0 0-2-1.082c-1.121 0-2.04.723-2.32 1.762-.641.32-1 1.039-.84 1.758.129.574.582 1.02 1.144 1.175-.933 3.106-.172 6.48 2.055 8.825l.8.84h-.84c-.679 0-1.198.523-1.198 1.203s.52 1.199 1.199 1.199c.082 0 .121.039.121.078 0 .043.04.082 0 .121-.32.68-.52 1.441-.52 2.2 0 .76.16 1.519.52 2.198.04.043 0 .082 0 .122 0 .039-.039.082-.121.082-.68 0-1.2.52-1.2 1.199 0 .68.52 1.199 1.2 1.199h8.8c.641 0 1.2-.52 1.2-1.2 0-.679-.52-1.198-1.2-1.198-.077 0-.12-.043-.12-.082 0-.04-.04-.079 0-.122.32-.68.52-1.437.52-2.199 0-.758-.161-1.52-.52-2.199-.04-.04 0-.078 0-.121 0-.04.043-.078.12-.078.68 0 1.2-.52 1.2-1.2 0-.68-.52-1.203-1.2-1.203h-.863l.582-.597a9.015 9.015 0 0 0 2.258-9.04c.348-.081.66-.288.903-.562.28-.36.402-.84.32-1.32zm-3.2 12.32c.239 0 .4.16.4.403 0 .238-.161.398-.4.398-.32 0-.64.16-.8.441-.16.278-.2.637-.04.918.282.563.442 1.2.442 1.84 0 .64-.16 1.281-.441 1.84-.16.281-.121.64.039.922.16.277.48.437.8.437.239 0 .4.16.4.403 0 .238-.161.398-.4.398h-8.8c-.238 0-.399-.16-.399-.398 0-.242.16-.403.399-.403.32 0 .64-.16.8-.437.16-.281.2-.64.04-.922a4.182 4.182 0 0 1-.438-1.84c0-.64.16-1.277.438-1.84.16-.28.12-.64-.04-.918-.16-.28-.48-.441-.8-.441-.238 0-.399-.16-.399-.398 0-.243.16-.403.399-.403zm-.8-1.96l-1.16 1.16h-4.88L8.227 13a8.206 8.206 0 0 1-1.878-8.078l.039-.121h6.398V6.52c0 1.16.84 2.16 1.961 2.28h.04c.448.06.898-.058 1.296-.292.145-.074.285-.164.426-.27.437-.437.719-1.039.719-1.636V4.8h.359c.96 2.96.2 6.238-2 8.437zm3-9.52a.782.782 0 0 1-.598.281h-1.64v2.602c0 .398-.2.757-.48 1.039-.282.28-.68.398-1.083.359a1.354 1.354 0 0 1-.77-.375 1.54 1.54 0 0 1-.43-1.066v-2.52h-.038V4H5.785v.004c-.297-.086-.535-.32-.598-.606a.831.831 0 0 1 .56-.957l.198-.082.082-.238c.121-.762.801-1.32 1.559-1.32.52 0 1 .277 1.242.719.16.199.36.359.598.402.242.039.441 0 .64-.121.36-.242.84-.242 1.243-.04.199.118.437.16.68.079a.885.885 0 0 0 .519-.399c.199-.402.597-.64 1.039-.64.52 0 1 .36 1.16.84.16.437.559.757 1.04.757h2.16c.402 0 .761.282.84.641.038.242 0 .48-.161.68zm0 0"/>
    <path d="M10.105 11.922c-1.48-1.563-2.078-3.762-1.68-5.844a.41.41 0 0 0-.32-.476.413.413 0 0 0-.48.32 7.541 7.541 0 0 0 1.883 6.52l1 1.038c.078.079.16.122.277.122.082 0 .16-.043.281-.082a.385.385 0 0 0 0-.56zm0 0M9.586 17.2h4.8a.4.4 0 0 0 .4-.4c0-.241-.161-.402-.4-.402h-4.8c-.238 0-.399.16-.399.403 0 .238.16.398.399.398zm0 0M14.387 18H9.586c-.238 0-.399.16-.399.398 0 .243.16.403.399.403h4.8a.4.4 0 0 0 .4-.403c0-.238-.161-.398-.4-.398zm0 0M14.387 19.602H9.586c-.238 0-.399.16-.399.398 0 .238.16.398.399.398h4.8a.4.4 0 0 0 .4-.398c0-.238-.161-.398-.4-.398zm0 0M14.387 21.2H9.586c-.238 0-.399.16-.399.402 0 .238.16.398.399.398h4.8a.4.4 0 0 0 .4-.398c0-.243-.161-.403-.4-.403zm0 0"/>
</svg>
